americans/img/check.svg

<svg width="36" height="36" viewBox="0 0 36 36" fill="none" xmlns="http://www.w3.org/2000/svg">
<path d="M30.9375 3.9375H5.0625C4.44023 3.9375 3.9375 4.44023 3.9375 5.0625V30.9375C3.9375 31.5598 4.44023 32.0625 5.0625 32.0625H30.9375C31.5598 32.0625 32.0625 31.5598 32.0625 30.9375V5.0625C32.0625 4.44023 31.5598 3.9375 30.9375 3.9375ZM24.4512 12.8566L17.0473 23.1223C16.9438 23.2667 16.8074 23.3844 16.6493 23.4656C16.4913 23.5468 16.3162 23.5891 16.1385 23.5891C15.9608 23.5891 15.7857 23.5468 15.6276 23.4656C15.4696 23.3844 15.3332 23.2667 15.2297 23.1223L10.8457 17.0473C10.7121 16.8609 10.8457 16.6008 11.0742 16.6008H12.723C13.0816 16.6008 13.4227 16.773 13.6336 17.0684L16.1367 20.5418L21.6633 12.8777C21.8742 12.5859 22.2117 12.4102 22.5738 12.4102H24.2227C24.4512 12.4102 24.5848 12.6703 24.4512 12.8566Z" fill="#D32F34"/>
</svg>

<svg width="36" height="36" fill="none" xmlns="http://www.w3.org/2000/svg"><path d="M30.938 3.938H5.063c-.623 0-1.125.502-1.125 1.124v25.875c0 .623.502 1.125 1.124 1.125h25.875c.623 0 1.125-.502 1.125-1.124V5.063c0-.623-.502-1.125-1.124-1.125Zm-6.487 8.919-7.404 10.265a1.118 1.118 0 0 1-1.817 0l-4.384-6.075a.282.282 0 0 1 .228-.446h1.649c.359 0 .7.172.91.467l2.504 3.474 5.526-7.664c.211-.292.549-.468.91-.468h1.65c.228 0 .362.26.228.447Z" fill="#D32F34"/></svg>
